X: 9249
T: Dan O'Keefe's
R: slide
M: 12/8
K: Edorian
B2 e e2 f e2 d B2 A|B2 c dBA B2 c dBA|
B2 e e2 f e2d B2 A|1 def a2 f e3 e2 d:|2 def a2 f e3 efa||
b3 b2 a b2 a f2 e|def a2 e def a3|
b3 b2 a b2 a f2 e|1 def a2 f e3 efa:|2 def a2 f e3 e3||

